src/assets/slider.svg

<svg width="986" height="215" viewBox="0 0 986 215" fill="none" xmlns="http://www.w3.org/2000/svg">
<path d="M623.142 147.493C620.276 143.817 616.683 138.906 611.818 132.204L561.813 63.3166L559.385 65.0789L561.813 63.3165L560.873 62.0216L560.77 61.8805C553.654 52.0726 546.586 42.3312 539.727 35.3147C532.103 27.5156 520.244 18.3329 503.28 18.6244C486.316 18.9158 474.78 28.5005 467.428 36.5569C460.814 43.8052 454.084 53.7843 447.309 63.8314L447.212 63.975L446.318 65.3008L448.805 66.9787L446.318 65.3008L402.692 129.959C397.9 137.062 394.349 142.285 391.501 146.205C388.654 142.285 385.103 137.062 380.31 129.959L336.338 64.786L333.851 66.4639L336.338 64.786L335.449 63.4675L335.352 63.324C328.642 53.3743 321.966 43.4742 315.397 36.273C308.082 28.2541 296.633 18.7436 279.791 18.3717C262.95 17.9999 251.092 26.9958 243.431 34.6841C236.55 41.5886 229.443 51.1847 222.3 60.8288L222.198 60.9673L221.251 62.2451L223.662 64.0311L221.251 62.2451L167.077 135.358C162.435 141.624 159.024 146.19 156.316 149.598C153.582 146.211 150.136 141.671 145.446 135.442L54.2685 14.3587C44.8002 1.78483 26.9315 -0.732752 14.3576 8.73554C1.78372 18.2038 -0.73387 36.0725 8.73442 48.6464L99.9116 169.73L100.841 170.964L100.941 171.098C107.799 180.209 114.686 189.359 121.372 195.981C128.884 203.421 140.337 211.974 156.557 211.912C172.778 211.849 184.163 203.207 191.618 195.709C198.253 189.036 205.069 179.833 211.856 170.669L211.955 170.534L212.875 169.293L267.049 96.1797C271.932 89.5895 275.535 84.7644 278.405 81.1566C281.113 84.8876 284.5 89.867 289.087 96.6662L333.059 161.84L335.546 160.162L333.06 161.84L333.971 163.19L334.07 163.337C341.082 173.735 348.003 183.998 354.778 191.414C362.258 199.601 374.106 209.456 391.501 209.456C408.897 209.456 420.745 199.601 428.225 191.414C435 183.998 441.921 173.735 448.933 163.337L449.033 163.19L449.943 161.84L493.569 97.181C498.2 90.316 501.622 85.284 504.361 81.5122C507.227 85.1877 510.82 90.0992 515.685 96.801L565.69 165.688L566.629 166.983L569.058 165.221L566.629 166.983L566.733 167.126C573.849 176.933 580.917 186.674 587.776 193.69C595.4 201.49 607.259 210.672 624.223 210.381C641.186 210.089 652.723 200.505 660.075 192.448C666.689 185.2 673.419 175.22 680.195 165.173L680.291 165.03L681.185 163.704L723.76 100.602C728.686 93.3017 732.345 87.9199 735.284 83.8758C738.111 87.999 741.621 93.4789 746.345 100.912L783.938 160.063L783.938 160.063L784.034 160.213C790.948 171.098 797.737 181.784 804.434 189.526C811.783 198.021 823.603 208.43 841.348 208.673C859.093 208.916 871.195 198.835 878.774 190.544C885.68 182.989 892.759 172.493 899.969 161.803L900.069 161.653L900.07 161.653L977.127 47.4427C985.93 34.3947 982.49 16.6806 969.442 7.8771C956.394 -0.926372 938.68 2.5145 929.876 15.5625L853.743 128.403C848.817 135.703 845.158 141.085 842.219 145.129C839.392 141.006 835.882 135.526 831.158 128.094L793.566 68.9442L793.566 68.9437L793.47 68.7921C786.555 57.9074 779.766 47.2212 773.069 39.4795C765.72 30.9839 753.899 20.5754 736.154 20.3323C718.409 20.0892 706.308 30.17 698.729 38.461C691.822 46.0164 684.743 56.5129 677.533 67.2042L677.433 67.3531L676.509 68.7218L633.934 131.824C629.303 138.689 625.881 143.721 623.142 147.493Z" stroke="black" stroke-width="6" stroke-linecap="round"/>
</svg>

<svg xmlns="http://www.w3.org/2000/svg" width="986" height="215" fill="none" xmlns:v="https://vecta.io/nano"><path d="M623.142 147.493c-2.866-3.676-6.459-8.587-11.324-15.289l-50.005-68.887-2.428 1.762 2.428-1.762-.94-1.295-.103-.141c-7.116-9.808-14.184-19.549-21.043-26.566-7.624-7.799-19.483-16.982-36.447-16.69s-28.5 9.876-35.852 17.932c-6.614 7.248-13.344 17.227-20.119 27.275l-.097.144-.894 1.326 2.487 1.678-2.487-1.678-43.626 64.658-11.191 16.246c-2.847-3.92-6.398-9.143-11.191-16.246l-43.972-65.173-2.487 1.678 2.487-1.678-.889-1.319-.097-.144c-6.71-9.95-13.386-19.85-19.955-27.051-7.315-8.019-18.764-17.529-35.606-17.901s-28.699 8.624-36.36 16.312c-6.881 6.904-13.988 16.501-21.131 26.145l-.102.139-.947 1.278 2.411 1.786-2.411-1.786-54.174 73.113-10.761 14.24c-2.734-3.387-6.18-7.927-10.87-14.156L54.269 14.359C44.8 1.785 26.932-.733 14.358 8.736S-.734 36.073 8.734 48.646L99.912 169.73l.929 1.234.1.134c6.858 9.111 13.745 18.261 20.431 24.883 7.512 7.44 18.965 15.993 35.185 15.931s27.606-8.705 35.061-16.203c6.635-6.673 13.451-15.876 20.238-25.04l.099-.135.92-1.241 54.174-73.113 11.356-15.023c2.708 3.731 6.095 8.71 10.682 15.51l43.972 65.174 2.487-1.678-2.486 1.678.911 1.35.099.147c7.012 10.398 13.933 20.661 20.708 28.077 7.48 8.187 19.328 18.042 36.723 18.042s29.244-9.855 36.724-18.042c6.775-7.416 13.696-17.679 20.708-28.077l.1-.147.91-1.35 43.626-64.659 10.792-15.669c2.866 3.675 6.459 8.587 11.324 15.289l50.005 68.887.939 1.295 2.429-1.762-2.429 1.762.104.143c7.116 9.807 14.184 19.548 21.043 26.564 7.624 7.8 19.483 16.982 36.447 16.691s28.5-9.876 35.852-17.933c6.614-7.248 13.344-17.228 20.12-27.275l.096-.143.894-1.326 42.575-63.102 11.524-16.726c2.827 4.123 6.337 9.603 11.061 17.036l37.593 59.151h0l.096.15c6.914 10.885 13.703 21.571 20.4 29.313 7.349 8.495 19.169 18.904 36.914 19.147s29.847-9.838 37.426-18.129c6.906-7.555 13.985-18.051 21.195-28.741l.1-.15h.001l77.057-114.21c8.803-13.048 5.363-30.762-7.685-39.566s-30.762-5.363-39.566 7.685l-76.133 112.84-11.524 16.726c-2.827-4.123-6.337-9.603-11.061-17.035l-37.592-59.15h0l-.096-.152c-6.915-10.885-13.704-21.571-20.401-29.313-7.349-8.496-19.17-18.904-36.915-19.147s-29.846 9.838-37.425 18.129c-6.907 7.555-13.986 18.052-21.196 28.743l-.1.149-.924 1.369-42.575 63.102-10.792 15.669z" stroke="#000" stroke-width="6"/></svg>
